dist/images/desktop/dollar.svg

<svg width="8" height="15" viewBox="0 0 8 15" fill="none" xmlns="http://www.w3.org/2000/svg">
<path d="M5.45312 10.1875C5.45312 9.76042 5.33333 9.42188 5.09375 9.17188C4.85938 8.91667 4.45833 8.68229 3.89062 8.46875C3.32292 8.25521 2.83333 8.04427 2.42188 7.83594C2.01042 7.6224 1.65625 7.38021 1.35938 7.10938C1.06771 6.83333 0.838542 6.51042 0.671875 6.14062C0.510417 5.77083 0.429688 5.33073 0.429688 4.82031C0.429688 3.9401 0.710938 3.21875 1.27344 2.65625C1.83594 2.09375 2.58333 1.76562 3.51562 1.67188V0H4.76562V1.69531C5.6875 1.82552 6.40885 2.21094 6.92969 2.85156C7.45052 3.48698 7.71094 4.3125 7.71094 5.32812H5.45312C5.45312 4.70312 5.32292 4.23698 5.0625 3.92969C4.80729 3.61719 4.46354 3.46094 4.03125 3.46094C3.60417 3.46094 3.27344 3.58333 3.03906 3.82812C2.80469 4.06771 2.6875 4.40104 2.6875 4.82812C2.6875 5.22396 2.80208 5.54167 3.03125 5.78125C3.26042 6.02083 3.6849 6.26562 4.30469 6.51562C4.92969 6.76562 5.44271 7.0026 5.84375 7.22656C6.24479 7.44531 6.58333 7.69531 6.85938 7.97656C7.13542 8.2526 7.34635 8.57031 7.49219 8.92969C7.63802 9.28385 7.71094 9.69792 7.71094 10.1719C7.71094 11.0573 7.4349 11.776 6.88281 12.3281C6.33073 12.8802 5.57031 13.2057 4.60156 13.3047V14.8594H3.35938V13.3125C2.29167 13.1979 1.46354 12.8203 0.875 12.1797C0.291667 11.5339 0 10.6771 0 9.60938H2.25781C2.25781 10.2292 2.40365 10.7057 2.69531 11.0391C2.99219 11.3672 3.41667 11.5312 3.96875 11.5312C4.42708 11.5312 4.78906 11.4115 5.05469 11.1719C5.32031 10.9271 5.45312 10.599 5.45312 10.1875Z" fill="#21CC14"/>
</svg>

<svg width="8" height="15" fill="none" xmlns="http://www.w3.org/2000/svg"><path d="M5.453 10.188c0-.428-.12-.766-.36-1.016-.234-.255-.635-.49-1.202-.703a14.887 14.887 0 01-1.47-.633 4.947 4.947 0 01-1.062-.727 3.04 3.04 0 01-.687-.968C.51 5.77.43 5.33.43 4.82c0-.88.28-1.602.843-2.165.563-.562 1.31-.89 2.243-.984V0h1.25v1.695c.921.13 1.643.516 2.164 1.157.52.635.78 1.46.78 2.476H5.454c0-.625-.13-1.091-.39-1.398-.256-.313-.6-.47-1.032-.47-.427 0-.758.123-.992.368-.234.24-.352.573-.352 1 0 .396.115.714.344.953.23.24.654.485 1.274.735.625.25 1.138.487 1.539.71.4.22.74.47 1.015.75.276.277.487.594.633.954.146.354.219.768.219 1.242 0 .885-.276 1.604-.828 2.156-.552.552-1.313.878-2.281.977v1.554H3.359v-1.546c-1.067-.115-1.895-.493-2.484-1.133C.292 11.534 0 10.677 0 9.61h2.258c0 .62.146 1.096.437 1.43.297.327.722.491 1.274.491.458 0 .82-.12 1.086-.36.265-.244.398-.572.398-.983z" fill="#21CC14"/></svg>
